!!! OTL: Berkowitz591
!!! Chapter: 1
!!! Section: V
!!! Page: 149
!!! Mode: 
!!! Encoder: AR
**kern
*staff1
=1-
!!pagebreak:original
*clefF4
*k[]
*C:
*M3/4
4BB/
4.F\
8F#\
=2
4BB/
4.Fn\
8F#\
=3
4.c\
8F#\
4c\
=4
8B\L
8B-\J
2E\
=5
4.A\
8A-\
8G-\L
8F\J
=6
4E-\
2An\
=7
8B\L
8c\J
8B\L
8G#\J
8A#\L
8F#\J
=8
!!linebreak:original
4E\
4G#\
4r
=9
4A\
4.D\
8D-\
=10
4A-\
4.Dn\
8D-\
=11
4C/
4.F#\
8G#\
=12
8c#\L
8cn\J
2Gn\
=13
4E\
4B-\
4B-\
=14
4E\
4A\
4D\
=15
2.C#/
==
*-
